X: 155
T: Miss Margaret Buchan's Strathspey
C: William Shepherd (17??-1812)
R: strathspey
B: William Shepherd "2nd Collection" 1800 p.15 #5
F: http://imslp.org/wiki/File:PMLP73094-Shepherd_Collections_HMT.pdf
Z: 2012 John Chambers <jc:trillian.mit.edu>
M: C
L: 1/16
K: Dm
d2 |\
D3ETF3G Ad3F3D | C3cE3c Cc3E3C |\
D3ETF3G Ad3F3D | Td3e {f}e2.d.^c d2D2D2 :|
A2 |\
Td3ef3g {fg}a3gf2d2 | Tcg3eg3 Tc3ge2c2 |\
Td3ef3g {fg}a3gf2d2 | e3Tc {a}g2.f.e fd3Td2 ||
A2 |\
Td3ef3g {fg}a3gf2d2 | cg3eg3 Tg3c efge |\
a3fg3e f3^cd3B | A3F (EF).G.E F2D2D2 |]
